X: 58
T:untitled
M:6/8
L:1/8
Q:130
C:Trad
S:Blodau'r Grug Collection Vol. 1
R:Set Dance
A:Wales
Z:brian_martin12345@yahoo.com
K:G
D|G2GG2B|d3d2B|AAAA2A|B3G2D|G2G GAB|d3d2B|A2A AGA|B3G3|]!
c2B cde|d2 Bd3|c2de2e|d3d3|c2BA2B|G3G2:||
